X: 15616
T: Goat's, The
R: polka
M: 2/4
K: Bminor
|:f2- fe|dB FB|dB BA|ec de|
f2- fe|dB FB|dB BA|F2 F2:|
|:B2 Bc|dA de|fg/f/ ed|FA Bc|
B2 Bc|dA de|fg/f/ ed|F2 F2:|

